file/beme.svg

<svg clip-rule="evenodd" fill-rule="evenodd" stroke-linejoin="round" stroke-miterlimit="1.41421" viewBox="0 0 560 400" xmlns="http://www.w3.org/2000/svg"><g transform="matrix(.907116 0 0 .907116 100 122.01)"><path d="m102.279 85.951c-9.917-15.636-27.103-25.986-46.66-25.986-19.556 0-36.742 10.35-46.659 25.986 9.917 15.635 27.103 25.985 46.659 25.985 19.557 0 36.743-10.35 46.66-25.985z" fill="#00022c"/><path d="m55.619 60.584c19.557 0 36.743 10.112 46.66 25.391 5.66-8.72 8.96-19.117 8.96-30.291 0-30.754-24.902-55.684-55.62-55.684-30.717 0-55.619 24.93-55.619 55.684 0 11.174 3.3 21.571 8.96 30.291 9.917-15.279 27.103-25.391 46.659-25.391" fill="#f00"/><path d="m55.619 111.367c-19.556 0-36.742-10.114-46.659-25.392-5.66 8.721-8.96 19.117-8.96 30.292 0 30.753 24.902 55.683 55.619 55.683 30.718 0 55.62-24.93 55.62-55.683 0-11.175-3.3-21.571-8.96-30.292-9.917 15.278-27.103 25.392-46.66 25.392" fill="#4bf6d7"/></g><g fill="#00022c" transform="matrix(.907116 0 0 .907116 231.53182 163.737336)"><path d="m46.483 46.493c0-5.154-3.462-10.45-8.918-10.45-6.085 0-10.806 6.348-10.806 12.449 0 5.154 3.462 10.556 8.918 10.556 6.085 0 10.806-6.453 10.806-12.555zm-25.921 27.14h-20.562l7.763-73.633h20.563l-3.148 29.137c2.518-4.312 8.917-9.046 17.416-9.046 12.17 0 20.983 9.571 20.983 24.51 0 17.776-12.38 30.399-26.543 30.399-8.603 0-14.059-4.734-15.633-9.152z"/><path d="m77.745 41.31h17.747c.522-5.411-2.611-8.739-8.04-8.739-5.217 0-9.186 3.225-9.707 8.739zm-1.149 9.883c-.522 5.202 1.462 9.571 8.248 9.571 4.383 0 7.621-1.873 8.873-5.2h19.833c-2.922 10.714-13.881 18.621-29.75 18.621-17.643 0-27.559-9.78-27.559-24.657 0-16.023 11.588-29.963 32.57-29.963 17.954 0 26.931 10.301 26.931 22.265 0 2.288-.311 5.202-1.46 9.363z"/><path d="m174.993 73.37 2.818-26.964c.627-5.933-.939-9.056-5.327-9.056-3.968 0-6.995 2.603-7.831 10.201l-2.713 25.819h-19.426l2.82-26.964c.626-5.933-.836-9.056-5.222-9.056-4.072 0-7.204 2.706-8.041 10.825l-2.61 25.195h-19.424l5.431-51.74h19.423l-.73 7.599c3.029-5.205 8.667-8.849 16.604-8.849 7.727 0 12.425 3.436 13.992 9.37 3.655-5.517 9.19-9.37 17.963-9.37 14.201 0 16.29 10.202 15.037 21.967l-3.238 31.023z"/><path d="m213.865 41.31h17.745c.522-5.411-2.608-8.739-8.037-8.739-5.219 0-9.186 3.225-9.708 8.739zm-1.148 9.883c-.523 5.202 1.461 9.571 8.247 9.571 4.384 0 7.62-1.873 8.871-5.2h19.835c-2.923 10.714-13.883 18.621-29.751 18.621-17.643 0-27.559-9.78-27.559-24.657 0-16.023 11.588-29.963 32.569-29.963 17.956 0 26.933 10.301 26.933 22.265 0 2.288-.313 5.202-1.462 9.363z"/></g></svg>

<?xml version="1.0" encoding="UTF-8" standalone="no"?>
<!DOCTYPE svg PUBLIC "-//W3C//DTD SVG 1.1//EN" "http://www.w3.org/Graphics/SVG/1.1/DTD/svg11.dtd">
<svg width="100%" height="100%" viewBox="0 0 560 400" version="1.1" xmlns="http://www.w3.org/2000/svg" xmlns:xlink="http://www.w3.org/1999/xlink" xml:space="preserve" xmlns:serif="http://www.serif.com/" style="fill-rule:evenodd;clip-rule:evenodd;stroke-linejoin:round;stroke-miterlimit:1.41421;">
    <g transform="matrix(0.907116,0,0,0.907116,100,122.01)">
        <g id="logo_white">
            <path id="Fill-7" d="M102.279,85.951C92.362,70.315 75.176,59.965 55.619,59.965C36.063,59.965 18.877,70.315 8.96,85.951C18.877,101.586 36.063,111.936 55.619,111.936C75.176,111.936 92.362,101.586 102.279,85.951Z" style="fill:rgb(0,2,44);"/>
            <path id="Fill-1" d="M55.619,60.584C75.176,60.584 92.362,70.696 102.279,85.975C107.939,77.255 111.239,66.858 111.239,55.684C111.239,24.93 86.337,0 55.619,0C24.902,0 0,24.93 0,55.684C0,66.858 3.3,77.255 8.96,85.975C18.877,70.696 36.063,60.584 55.619,60.584" style="fill:rgb(255,0,0);"/>
            <path id="Fill-4" d="M55.619,111.367C36.063,111.367 18.877,101.253 8.96,85.975C3.3,94.696 0,105.092 0,116.267C0,147.02 24.902,171.95 55.619,171.95C86.337,171.95 111.239,147.02 111.239,116.267C111.239,105.092 107.939,94.696 102.279,85.975C92.362,101.253 75.176,111.367 55.619,111.367" style="fill:rgb(75,246,215);"/>
        </g>
        <g id="logotype_white" transform="matrix(1,0,0,1,145,46)">
            <path id="Fill-11" serif:id="Fill-1" d="M46.483,46.493C46.483,41.339 43.021,36.043 37.565,36.043C31.48,36.043 26.759,42.391 26.759,48.492C26.759,53.646 30.221,59.048 35.677,59.048C41.762,59.048 46.483,52.595 46.483,46.493ZM20.562,73.633L0,73.633L7.763,0L28.326,0L25.178,29.137C27.696,24.825 34.095,20.091 42.594,20.091C54.764,20.091 63.577,29.662 63.577,44.601C63.577,62.377 51.197,75 37.034,75C28.431,75 22.975,70.266 21.401,65.848L20.562,73.633Z" style="fill:rgb(0,2,44);"/>
            <path id="Fill-41" serif:id="Fill-4" d="M77.745,41.31L95.492,41.31C96.014,35.899 92.881,32.571 87.452,32.571C82.235,32.571 78.266,35.796 77.745,41.31ZM76.596,51.193C76.074,56.395 78.058,60.764 84.844,60.764C89.227,60.764 92.465,58.891 93.717,55.564L113.55,55.564C110.628,66.278 99.669,74.185 83.8,74.185C66.157,74.185 56.241,64.405 56.241,49.528C56.241,33.505 67.829,19.565 88.811,19.565C106.765,19.565 115.742,29.866 115.742,41.83C115.742,44.118 115.431,47.032 114.282,51.193L76.596,51.193Z" style="fill:rgb(0,2,44);"/>
            <path id="Fill-6" d="M174.993,73.37L177.811,46.406C178.438,40.473 176.872,37.35 172.484,37.35C168.516,37.35 165.489,39.953 164.653,47.551L161.94,73.37L142.514,73.37L145.334,46.406C145.96,40.473 144.498,37.35 140.112,37.35C136.04,37.35 132.908,40.056 132.071,48.175L129.461,73.37L110.037,73.37L115.468,21.63L134.891,21.63L134.161,29.229C137.19,24.024 142.828,20.38 150.765,20.38C158.492,20.38 163.19,23.816 164.757,29.75C168.412,24.233 173.947,20.38 182.72,20.38C196.921,20.38 199.01,30.582 197.757,42.347L194.519,73.37L174.993,73.37Z" style="fill:rgb(0,2,44);"/>
            <path id="Fill-8" d="M213.865,41.31L231.61,41.31C232.132,35.899 229.002,32.571 223.573,32.571C218.354,32.571 214.387,35.796 213.865,41.31ZM212.717,51.193C212.194,56.395 214.178,60.764 220.964,60.764C225.348,60.764 228.584,58.891 229.835,55.564L249.67,55.564C246.747,66.278 235.787,74.185 219.919,74.185C202.276,74.185 192.36,64.405 192.36,49.528C192.36,33.505 203.948,19.565 224.929,19.565C242.885,19.565 251.862,29.866 251.862,41.83C251.862,44.118 251.549,47.032 250.4,51.193L212.717,51.193Z" style="fill:rgb(0,2,44);"/>
        </g>
    </g>
</svg>
